X: 41978
T: Wallop The Spot
R: jig
M: 6/8
K: Dmajor
|:d2 B cAF|FEF dAF|d2 B cAF|B2 d AFD|
d2 B cAF|FEF dAF|dfd cec|B2 d AFE:|
|:c2 d ecA|eaf ecA|c2 d ecA|B2 F AFE|
c2 d ecA|eaf ef^g|agf ecA|~B2 A AFE:|
|:DFA dfd|dfd dAF|DFA dAF|B2 d AFE|
DFA dfd|dfd d2 g|f/g/af d2 A|B2 d AFE:|
|:~F2 E D2 D|DED D2 E|FEF DFA|B2 d AFE|
~F2 E D2 D|DED D2 c|dcB cBA|B2 d AFE:|

